X:64
%%topspace -50
%%musicspace -15
T:Petronella
M:2/4
L:1/16
K:D
dA | "D"F2AF "A"E2AF | "D"D2D2 D2FA | "D"d2cd "E"e2d2 | "A"cdec A2dA | 
"D"F2AF "A"E2AF | "D"D2D2 D2FA | "D"d2cd "A"e2c2 | "D"d4 d2 :: 
dA | "D"F2fd A2af | "G"g2gf edcB | "A"A2ec A2ge | "D"f2fd AdAF | 
"D"D2fd A2af | "G"g2gf edcB | "A"A2ec Agec | "D"d2f2 d2 :|

